X: 14634
T: Gan Ainm
R: reel
M: 4/4
K: Ddorian
A,DDC DEFG|Adde fdBd|cG G/G/G cGdG|cedc AGEG|
FGEF DEFG|Adde fdBd|cG G/G/G cedc|AFGE D2D2:|
|:Addc defg|adde dcAG|AccB cdeg|aged cAGc|
Addc defg|adde dcAB|cdcA GAcG|AcGc EDD2:|

